X:1
T:Title
%%score { ( 1 3 ) | ( 2 4 ) }
L:1/8
M:9/8
K:Eb
V:1 treble nm="Grand Piano"
V:3 treble 
V:2 bass 
V:4 bass 
V:1
 z3 z3[Q:1/4=114] E2 F | G3- G2 G B2 G | [_Gc]3 [=GB]3 [Ae]2 [Ac] | [GB]3- [GB]2 [Ac] [GB]2 [EG] | %4
[M:3/4] [DF]6 |[M:3/8] E2 F |[M:9/8] G3- G2 G B2 G | [_Gc]3 [=GB]3 [Gc]2 [Ge] | d3- d2 B c2 d | %9
[M:3/4] [DFB]6 |[M:12/8] z3 e6- e2 z | z3 B3 [DF]6 | z3 E6- E2 z | %13
 [Fd]2 [Ec] B2- [DB-] [FB-]2 [EB-] [DB]3 | z3 e6- e2 z | z3 d3 [Ac]6 | z3 B6- B2 z | %17
[M:9/8] z3 E6- | E3 z3 z3 |] %19
V:2
 z3 z3 [E,G,]2 [E,A,D] | [E,B,E]3- [E,B,E]2 [E,B,E] [E,G,E]2 [E,B,E] | %2
 [E,=A,]3 [E,B,]3 [E,C]2 [E,E] | [E,E]3- [E,E]2 [E,E] [E,E]2 [E,B,] |[M:3/4] [B,,B,]6 | %5
[M:3/8] [E,G,]2 [E,A,D] |[M:9/8] [E,B,E]3- [E,B,E]2 [E,B,E] [E,G,E]2 [E,B,E] | %7
 [E,=A,]3 [E,B,]3 [E,B,]2 [C,B,] | [F,B,F]3- [F,B,F]2 [F,DF] [F,EF]2 [F,EF] |[M:3/4] B,,6 | %10
[M:12/8][K:treble] z3[K:bass] G6- G2[K:treble] z | z3 D3[K:bass] z6 | z3 C6- C2 z | %13
 [F,=A,]2 [F,A,] [B,,B,]2 [B,,F,] [B,,_A,]2 [B,,G,] [B,,F,]3 | z3[K:bass] G6- G2[K:treble] z | %15
 z3 B3[K:bass] z6 | z3[K:bass] G6- G2 z |[M:9/8] [B,,B,]2 [B,,A,] [E,G,]2 [E,G,] [A,,A,]2 [A,,A,] | %18
 [E,G,]3 z3 z3 |] %19
V:3
 x9 | x9 | x9 | x9 |[M:3/4] x6 |[M:3/8] x3 |[M:9/8] x9 | x9 | x9 |[M:3/4] x6 | %10
[M:12/8] z2 B z3 B,2 B, B,2 B | c2 G z2 B, B,2 B, B,2 B, | G2 F z3 G,2 G, G,2 [G,EG] | z3 .D3 z6 | %14
 c2 d z3 B,2 B, B,2 e | f2 e z2 E E2 E E2 E | d2 c z3 E2 E E2 [EG] |[M:9/8] [DA]2 [DF] z2 B, C2 C | %18
 B,3 z3 z3 |] %19
V:4
 x9 | x9 | x9 | x9 |[M:3/4] x6 |[M:3/8] x3 |[M:9/8] x9 | x9 | x9 |[M:3/4] x6 | %10
[M:12/8][K:treble] B2 A[K:bass] z3 E,2 E, E,2[K:treble] G | G2 E z2[K:bass] B,, B,,2 B,, B,,2 B,, | %12
 B,2 =B, z3 C,2 C, C,2 C, | x12 | E2 F[K:bass] z3 E,2 E, E,2[K:treble] G | %15
 A2 G z2[K:bass] [A,,A,] [A,,A,]2 [A,,A,] [A,,A,]2 [A,,A,] | %16
 B2 A[K:bass] z3 B,,2 B,, B,,2 [B,,B,] |[M:9/8] x9 | x9 |] %19

